X: 3
T: Laura's Farewell
T: dedicated to the memory of Laura Stein
C: Bruce Sagan
R: waltz
Z: 2021 John Chambers <jc:trillian.mit.edu>
M: 3/4
L: 1/8
K: G
|:"G"B3 G Bd | "D"A4 GF | "C"E3 C EG | "D"E2 D4 | "G"B3 G Bd | "D"A3 B cd | "Am"e3 d cB | "D"A4 D2 |
| "G"B3 G Bd | "D"A4 GF | "C"E3 C EG | "D"E2 D3 D | "C"C2 E2 G2 | "D"F2 FDFA | "C"G2 GF "D"GA |1 "G"G4 D2 :|2 "G"G2 B2 d2 ||
|:"C"e3 fg2 | "G"d2 B2 G2 | "D"A2 G3 A | "G"B3 G Bd | "C"e3 f g2 | "G"d2 g2 b2 | "D"a2 ag "Em"ab | "D"a4 gf |
| "C"e3 fg2 | "G"d2 B2 G2 | "Am"ed c2 B2 | "D"A4 GF | "Em"E3 F G2 | "D"F2 FDFA | "C"G2 GF "D"GA |1 "G"G2 B2 d2 :|2 "G"G6 :|

%%sep 2 1 500

